
3.

SynthDefs2

SynthDefsSuperCollider

SynthDefs2SuperColliderugenGraphFunc

////////////////////////////////////////////////////////////////////////////////////////////////////

ugenGraphFuncSuperCollider

http://www.nist.gov/dads/HTML/graph.html



xy

////////////////////////////////////////////////////////////////////////////////////////////////////

// synthdef ... 
SynthDef(
	"i am a synthdef",					// 
	{ .... i am a ugenGraphFunc ... }	// UGen
)

SuperCollidersynthdef

(
SynthDef(
	"aSynthDef", 					// SynthDef
	{ 							// ugenGraphFunc
		arg freq;
		Out.ar(
			0,
			SinOsc.ar(freq, 0, 0.1)
		)
	}
).load(s);
)

////////////////////////////////////////////////////////////////////////////////////////////////////

SynthDef

ugenGraphFunc23ugencontrolinputoutput



(
SynthDescLib.global.read;
SynthDescLib.global.browse;
)

SynthDefugenGraphFunc ugencontrolinputoutput

SynthDef.loadSuperColliderSynthDef

.loadSynthDef.sendSynthDef

.store.store.load.sendSynthDefSynthDef

////////////////////////////////////////////////////////////////////////////////////////////////////

ugenGraphFunc

SynthDefSynthDefaSynthDef4ugen1controlinput1output

4ugenControlSinOscBinaryOpUGenOutSynthDefSuperColliderControlBinaryOpUGenugen

SynthDef1freqaSynthSynthDefIn

SynthDef01

SynthDef

////////////////////////////////////////////////////////////////////////////////////////////////////


