
5.



SuperCollider128

////////////////////////////////////////////////////////////////////////////////////////////////////

// 
[ channel0, channel1, channel2, channel3, channel4, ... , ..., ..., etc., ... channel127 ]

////////////////////////////////////////////////////////////////////////////////////////////////////

Outugen

(
SynthDef("dataForABus", {
	Out.ar(
		0,					// 10
		Saw.ar(100, 0.1)
	)
}).load(s);
)

Synth("dataForABus");

SynthDef

(
// 
SynthDescLib.global.read;
SynthDescLib.global.browse;
)

10

////////////////////////////////////////////////////////////////////////////////////////////////////



.arInugen

(
SynthDef("dataFromABus", {
	Out.ar(
		0,					
		[	//
			In.ar(0, 1),			
			SinOsc.ar(440, 0.2),
		]	
	)
}).load(s);
)

(
Synth("dataForABus");	// 0
Synth("dataFromABus");	// 1
)

////////////////////////////////////////////////////////////////////////////////////////////////////

SuperColliderOutIn

////////////////////////////////////////////////////////////////////////////////////////////////////


