
8.

11UGen

1UGen

{ Saw.ar(500, 0.1) }.scope;



{ Formlet.ar(Saw.ar(22), 400, 0.01, 0.11, 0.022) }.scope



UGenSuperCollider

////////////////////////////////////////////////////////////////////////////////////////////////////



1UGen2

{ Saw.ar([500, 933], 0.1) }.scope;



{ [ Saw.ar(500, 0.1), Saw.ar(933, 0.1)] }.scope;

////////////////////////////////////////////////////////////////////////////////////////////////////

UnaryOpUGen

UGenUnaryOpsSuperCollider

////////////////////////////////////////////////////////////////////////////////////////////////////



{ SinOsc.ar(500, 0, 0.5) }.scope;



{ SinOsc.ar(500, 0, 0.5).distort }.scope;

.distortUGen.distortSinOsc UGen

////////////////////////////////////////////////////////////////////////////////////////////////////

.distort

AbstractFunctionUGenAbstractFunctionAbstractFunctionUGen



{ SinOsc.ar(500, 0, 0.5) }.scope;



// .cubed
{ SinOsc.ar(500, 0, 0.5).cubed }.scope;

////////////////////////////////////////////////////////////////////////////////////////////////////


