
LFTri				triangle oscillator

LFTri.ar(freq, iphase, mul, add)

A non-band-limited triangle oscillator. Output ranges from -1 to +1.
freq - frequency in Hertz
iphase - initial phase offset. For efficiency reasons this is a value ranging from 0 to 4.

{ LFTri.ar(500, 0, 0.1) }.play

// used as both Oscillator and LFO:
{ LFTri.ar(LFTri.kr(4, 0, 200, 400), 0, 0.1) }.play



