
Event

superclass: Environment

Events are dictionaries matching Symbols representing names of parameters for a musical event to their values.

It is primarily used by Pbind which creates a stream of Events and creates synths for each event.

For more information on Events see:
[Streams-Patterns-Events4] and [Streams-Patterns-Events5] and [Pbind]



